!!!!SEGMENT: pl-wtm--r-1421--001_stefani-jozef--suita-maestoso.krn
!!!cenid: 18xx:2428
!!!COM: Stefani, Józef
!!!COM-rism: pe30024097
!!!CDT: 1800/04/16-1876/03/19
!!!CNT: Polish
!!!OTL: Suita – Maestoso
!!!PDT: 1855
!!!AGN: Secular
!!!SMS-siglum: PL-Wtm
!!!SMS-shelfmark: R 1421
!!!NIFC-rismID: 1001116120
!!!URL-scan: http://repozytorium.nifc.pl/skany/pl-wtm-nut--r1421
!!!ONB-nifc: UWAGA: części Suity: 1. Maestoso, 2. Allegretto, 3. Andante mosso
!!!SMS-variant:
!!!SMS-altvar:
!!!OMD:Maestoso
**kern	**kern	**dynam	**kern	**dynam	**kern	**dynam	**kern	**dynam
*part4	*part4	*part4	*part3	*part3	*part2	*part2	*part1	*part1
*staff5	*staff4	*	*staff3	*	*staff2	*	*staff1	*
*I"fortepian	*	*	*I"[Violonello]	*	*I"[Violino 2]	*	*I"[Violino 1]	*
*clefG2	*clefG2	*	*clefF4	*	*clefG2	*	*clefG2	*
*>[A,A,B,B,C,C,D,D,E,E,B,B,C,C]	*>[A,A,B,B,C,C,D,D,E,E,B,B,C,C]	*	*>[A,A,B,B,C,C,D,D,E,E,B,B,C,C]	*	*>[A,A,B,B,C,C,D,D,E,E,B,B,C,C]	*	*>[A,A,B,B,C,C,D,D,E,E,B,B,C,C]	*
*k[]	*k[]	*	*k[]	*	*k[]	*	*k[]	*
*M3/4	*M3/4	*	*M3/4	*	*M3/4	*	*M3/4	*
=1	=1	=1	=1	=1	=1	=1	=1	=1
*>A	*>A	*	*>A	*	*>A	*	*>A	*
!	!	!LO:DY:rj	!	!LO:DY:rj	!	!	!	!LO:DY:rj
8e/	8eee\ 8gg#X\	f	8E\	f	8gg#X\ 8b\	.	8eee\	f
8r	8r	.	8r	.	8r	.	8r	.
(>16e/LL	4.bb\ 4.gg#\ 4.ee\	.	(>16E\LL	.	4.gg#\ 4.b\	.	4.bb^<\	.
16d#X/	.	.	16D#X\	.	.	.	.	.
16e/	.	.	16E\	.	.	.	.	.
16d#/JJ	.	.	16D#\JJ)	.	.	.	.	.
8e/)	.	.	8E\	.	.	.	.	.
8r	8r	.	8r	.	8r	.	8r	.
=2	=2	=2	=2	=2	=2	=2	=2	=2
8A/	8ccc\ 8aa\ 8ee\	.	8AA/	.	8aa\ 8a\	.	8ccc\ 8a\	.
8r	8r	.	8r	.	8r	.	8r	.
(>16a/LL	4.aa\ 4.ee\ 4.cc\	.	(16A\LL	.	4.cc/ 4.e/	.	4.aa\ 4.a^<\	.
16g#X/	.	.	16G#X\	.	.	.	.	.
16a/	.	.	16A\	.	.	.	.	.
16g#/JJ	.	.	16G#\JJ	.	.	.	.	.
8a/)	.	.	8A\)	.	.	.	.	.
8r	8r	.	8r	.	8r	.	8r	.
=3	=3	=3	=3	=3	=3	=3	=3	=3
8d/	8ddd\ 8ff#X\	.	8D\	.	8ff#X\ 8a\	.	8ddd\ 8dd\	.
8r	8r	.	8r	.	8r	.	8r	.
(>16d/LL	4.aa\ 4.ff#\ 4.dd\	.	(16d\LL	.	4.ff#\ 4.a\	.	4.aa\ 4.dd^<\	.
16c#X/	.	.	16c#X\	.	.	.	.	.
16d/	.	.	16d\	.	.	.	.	.
16c#/JJ	.	.	16c#\JJ	.	.	.	.	.
8d/)	.	.	8d\)	.	.	.	.	.
8r	8r	.	8r	.	8r	.	8r	.
=4	=4	=4	=4	=4	=4	=4	=4	=4
8G/	8bb\ 8gg\ 8dd\	.	8GG/	.	8gg\ 8b\	.	8bb\ 8dd\	.
8r	8r	.	8r	.	8r	.	8r	.
(>16g/LL	4.gg\ 4.dd\ 4.b\	.	(16G\LL	.	4.b/ 4.g/	.	4.gg^<\	.
16f#X/	.	.	16F\	.	.	.	.	.
16g/	.	.	16G\	.	.	.	.	.
16f#/JJ	.	.	16F\JJ	.	.	.	.	.
8g/)	.	.	8G\)	.	.	.	.	.
8r	8r	.	8r	.	8r	.	8r	.
!!LO:LB:g=original
=5	=5	=5	=5	=5	=5	=5	=5	=5
8G/L	8g'/L	.	2.r	.	2.r	.	2.r	.
8f#X/	8a'/	<	.	.	.	.	.	.
8fn/	8b'/	.	.	.	.	.	.	.
8e/	8cc'/	.	.	.	.	.	.	.
8d/	8dd'/	.	.	.	.	.	.	.
8c/J	8ee'/J	[	.	.	.	.	.	.
=6	=6	=6	=6	=6	=6	=6	=6	=6
8B/	8ff\	.	2.r	.	2.r	.	2.r	.
8r	8r	.	.	.	.	.	.	.
8c/	8ee\	.	.	.	.	.	.	.
8r	8r	.	.	.	.	.	.	.
4f#X/	4aa\ 4ee-X\ 4cc\	sf	.	.	.	.	.	.
=7	=7	=7	=7	=7	=7	=7	=7	=7
!	!	!	!	!LO:DY:rj	!	!	!	!LO:DY:rj
4g/	4gg\ 4een\ 4cc\	.	4G\ 4GG\	f	4cc/ 4en/	.	4gg\ 4cc\	f
4r	4r	.	4r	.	4r	.	4r	.
4r	4r	.	4r	.	4r	.	4r	.
=8	=8	=8	=8	=8	=8	=8	=8	=8
4g/	4gg\ 4dd\ 4b\	.	4G\ 4GG\	.	4dd/ 4g/	.	4gg\ 4b\	.
4r	4r	.	4r	.	4r	.	4r	.
4r;	4r;	.	4r;	.	4r;	.	4r;	.
=9||	=9||	=9||	=9||	=9||	=9||	=9||	=9||	=9||
*^	*	*	*	*	*	*	*	*
!!!OMD:All.. modto..
*>B	*>B	*>B	*	*>B	*	*>B	*	*>B	*
*M2/4	*M2/4	*M2/4	*	*M2/4	*	*M2/4	*	*M2/4	*
*	*2\right	*	*	*	*	*	*	*	*
!	!	!	!LO:DY:rj	!	!LO:DY:a	!	!	!LO:TX:t=P:problem:brak otwarcia repetycji	!
(16g/LL	2c\	(16ee\LL	p	2C/	p	2r	.	2r	.
16f#X/	.	16dd#X\	.	.	.	.	.	.	.
16g/	.	16ee\	.	.	.	.	.	.	.
16f#/JJ	.	16dd#\JJ	.	.	.	.	.	.	.
8g/L)	.	8ee\L)	.	.	.	.	.	.	.
8e'/J	.	8cc'\J	.	.	.	.	.	.	.
*v	*v	*	*	*	*	*	*	*	*
=10	=10	=10	=10	=10	=10	=10	=10	=10
.	(8qee/	.	.	.	.	.	(8qee/	p
8B/L	8dd\L)	.	8BB/	.	8r	.	8dd\L)	.
8f/J 8d/	8g'\J	.	8r	.	8f/ 8G/	.	8g'\J	.
.	(8qaa/	.	.	.	.	.	(8qaa/	.
8c/L	8gg\L)	.	8C/	.	8r	.	8gg\L)	.
8g/J 8e/	8ee'\J	.	8r	.	8e/ 8G/	.	8ee'\J	.
!!LO:LB:g=original
=11	=11	=11	=11	=11	=11	=11	=11	=11
!	!	!	!LO:TX:a:t=pizz.	!	!	!	!	!
8c/L	(16ee|<\LL	.	8C\L	.	2r	.	2r	.
.	16dd#X\	.	.	.	.	.	.	.
8a/	16ee\	.	8A\	.	.	.	.	.
.	16dd#\JJ	.	.	.	.	.	.	.
8g/	8ee\L)	.	8G\	.	.	.	.	.
8e/J	8cc'\J	.	8E\J	.	.	.	.	.
=12	=12	=12	=12	=12	=12	=12	=12	=12
!	!	!	!LO:TX:t=P:problem:mixed beam	!	!	!	!	!
.	(8qee/	.	.	.	.	.	(8qee/	.
*^	*	*	*	*	*	*	*	*
8G/L	4G\	8dd/L)	.	8GG/L	.	8r	.	8dd\L)	.
8f/ 8B/	.	8g'/	.	8G/	.	8f/L 8G/	.	8g'\	.
8e/J 8c/	4rcyy	8cc'/J	.	8C/J	.	8e/J 8G/	.	8cc'\J	.
8r	.	8r	.	8r	.	8r	.	8r	.
*v	*v	*	*	*	*	*	*	*	*
=13:|!|:	=13:|!|:	=13:|!|:	=13:|!|:	=13:|!|:	=13:|!|:	=13:|!|:	=13:|!|:	=13:|!|:
*>C	*>C	*	*>C	*	*>C	*	*>C	*
!	!	!LO:DY:rj	!	!	!	!	!	!
16G'/LL	16dd\LL 16b'\	f	4r	.	4r	.	4r	.
16g'/J	16dd\J 16b'\	.	.	.	.	.	.	.
8e'/J	8cc#X\J 8a#X'^<\	.	.	.	.	.	.	.
16G'/LL	16dd\LL 16b'\	.	8r	.	8r	.	8r	.
16g'/J	16dd\J 16b'\	.	.	.	.	.	.	.
8g#X'/J	8ee\J 8b'^<\	.	8G#X^<\	.	8b/ 8e/	.	8ee^<\	.
=14	=14	=14	=14	=14	=14	=14	=14	=14
16a'/LL	16cc'\LL	.	8r	.	8r	.	8r	.
16a'/J	16cc'\J	.	.	.	.	.	.	.
8f#X'/J	8dd'^<\J	.	8F#X^<\	.	8a/ 8d/	.	8dd^<\	.
16g'/LL	16b'/LL	.	8r	.	8r	.	8r	.
16g'/J	16b'/J	.	.	.	.	.	.	.
8f#/J 8d'/	8a'^</J	.	8D^<\	.	8f#X/	.	8a^<\	.
=15	=15	=15	=15	=15	=15	=15	=15	=15
16G/LL	16dd\LL 16b'\	.	4r	.	4r	.	4r	.
16g/J	16dd\J 16b'\	.	.	.	.	.	.	.
8e/J	8cc#X\J 8a#X'^<\	.	.	.	.	.	.	.
16G/LL	16dd\LL 16b'\	.	8r	.	8r	.	8r	.
16g/J	16dd\J 16b'\	.	.	.	.	.	.	.
8g#X/J	8ee\J 8b'^<\	.	8G#X^<\	.	8b/ 8e/	.	8ee^<\	.
=16	=16	=16	=16	=16	=16	=16	=16	=16
16a'/LL	16cc'\LL	.	8r	.	8r	.	8r	.
16a'/J	16cc'\J	.	.	.	.	.	.	.
8f#X'/J	8dd'^<\J	.	8F#X^<\	.	8a/ 8d/	.	8dd\	.
16g'/LL	16b'/LL	.	8r	.	8r	.	8r	.
16g'/J	16b'/J	.	.	.	.	.	.	.
8f#/J 8d'/	8a'^</J	.	8D^<\	.	8f#X/	.	8a/	.
!!LO:PB:g=original
=17	=17	=17	=17	=17	=17	=17	=17	=17
!	!	!LO:DY:rj	!	!	!	!	!	!LO:DY:rj
8G/L	16dd\LL 16b'\	p	8GG/	.	16B'/LL	.	16d'/LL	p
.	16ee\J 16cc'\	.	.	.	16c'/J	.	16e'/J	.
8f/J 8d/	8ff\J 8dd'\	.	8r	.	8d'/J	.	8f'/J	.
*rep	*	*	*	*	*	*	*	*
8G/L	16ff\LL 16dd'\	.	8G\	.	16d'/LL	.	16f'/LL	.
.	16gg\J 16ee'\	.	.	.	16e'/J	.	16g'/J	.
8f/J 8d/	8aa\J 8ff'\	.	8r	.	8f'/J	.	8a'/J	.
*Xrep	*	*	*	*	*	*	*	*
=18	=18	=18	=18	=18	=18	=18	=18	=18
8c/L	8gg\L 8ee\	.	8C/	.	8e/	.	8g/	.
8g/J 8e/	8eee\J 8gg\	.	8r	.	8g^/	.	8ee^<\	.
*rep	*	*	*	*	*	*	*	*
8c/L	4ccc\ 4ee^<\	.	4C/	.	4e^/	.	4cc^<\	.
8g/J 8e/	.	.	.	.	.	.	.	.
*Xrep	*	*	*	*	*	*	*	*
=19	=19	=19	=19	=19	=19	=19	=19	=19
!	!	!LO:HP:a	!	!	!	!	!	!
8F#X/L	16a'/LL	<	2r	.	2r	.	2r	.
.	16b'/J	.	.	.	.	.	.	.
8e-X/J 8A/	8cc'/J	.	.	.	.	.	.	.
*rep	*	*	*	*	*	*	*	*
8F#/L	16cc'\LL	.	.	.	.	.	.	.
.	16dd'\J	.	.	.	.	.	.	.
8e-/J 8A/	8ee-X'\J	[	.	.	.	.	.	.
*Xrep	*	*	*	*	*	*	*	*
=20	=20	=20	=20	=20	=20	=20	=20	=20
!	!	!LO:DY:a	!LO:TX:t=P:problem:mixed beam	!	!	!	!	!LO:DY:rj
8G/L	(16aa\LL	f	8G\L	.	8f/L 8G/	.	(16aa\LL	f
.	16gg\)	.	.	.	.	.	16gg\	.
8f/J 8B/	16ff'\	.	8GG/J	.	8f/J 8G/	.	16ff\	.
.	16dd'\JJ	.	.	.	.	.	16dd\JJ)	.
8e/ 8c/	8cc\	.	8C/	.	8e/ 8G/	.	8cc\	.
8r	8r	.	8r	.	8r	.	8r;	.
!!LO:LB:g=original
=21:|!	=21:|!	=21:|!	=21:|!	=21:|!	=21:|!	=21:|!	=21:|!	=21:|!
*>D	*>D	*	*>D	*>D	*>D	*>D	*>D	*
*clefF4	*	*	*	*	*	*	*	*
*k[b-]	*k[b-]	*	*k[b-]	*	*k[b-]	*	*k[b-]	*
*F:	*F:	*	*F:	*	*F:	*	*F:	*
!	!	!	!	!	!	!	!LO:TX:t=P:problem:brak otwarcia repetycji	!
8F\L	16cc\LL 16a'/	.	8F\	.	8r	p	4r	.
.	16cc\J 16a'/	.	.	.	.	.	.	.
8c\J 8A\	8a\J 8f'/	.	8r	.	8f/ 8A/	.	.	.
!	!	!	!	!	!	!	!	!LO:DY:rj
.	(16qqff/LL	.	.	.	.	.	(16qqff/LL	p
.	16qqgg/JJ	.	.	.	.	.	16qqgg/JJ	.
*rep	*	*	*	*	*	*	*	*
8F\L	8aa\L)	.	8F\	.	8r	.	8aa\L)	.
8c\J 8A\	8cc\J 8a'\	.	8r	.	8f/ 8A/	.	8cc'\J	.
*Xrep	*	*	*	*	*	*	*	*
=22	=22	=22	=22	=22	=22	=22	=22	=22
8C\L	16b-\LL 16g'/	.	8C/	.	8r	.	4r	.
.	16b-\J 16g'/	.	.	.	.	.	.	.
8c\J 8B-\ 8G\	8g\J 8e'/	.	8r	.	8e/ 8G/	.	.	.
.	(16qqee/LL	.	.	.	.	.	(16qqee/LL	.
.	16qqff/JJ	.	.	.	.	.	16qqff/JJ)	.
*rep	*	*	*	*	*	*	*	*
8C\L	8gg\L)	.	8C/	.	8r	.	8gg\L	.
8c\J 8B-\ 8G\	8b-\J 8g'\	.	8r	.	8e/ 8G/	.	8b-'\J	.
*Xrep	*	*	*	*	*	*	*	*
=23	=23	=23	=23	=23	=23	=23	=23	=23
!	!	!	!	!	!	!	!LO:TX:a:t=1	!
8F\L	16a'\LL	.	2r	.	2r	.	2r	.
.	16dd'\J	.	.	.	.	.	.	.
8c\J 8A\	[8cc\J	.	.	.	.	.	.	.
*rep	*	*	*	*	*	*	*	*
8F\L	16cc\LL]	.	.	.	.	.	.	.
.	16gg'\J	.	.	.	.	.	.	.
8c\J 8A\	8ff'\J	.	.	.	.	.	.	.
*Xrep	*	*	*	*	*	*	*	*
=24	=24	=24	=24	=24	=24	=24	=24	=24
.	(8qaa/	.	.	.	.	.	.	.
8C\L	16.gg\LL)	.	4r	.	4r	.	4r	.
.	32ff#X\K	.	.	.	.	.	.	.
8c\J 8G\ 8E\	16.gg\	.	.	.	.	.	.	.
.	32aa\JJk	.	.	.	.	.	.	.
*rep	*	*	*	*	*	*	*	*
8C\L	8gg\L	.	8r	.	8r	.	8r	.
8c\J 8G\ 8E\	8ccc\J 8gg\ 8ee^<\	.	8C/ 8CC/	.	8cc/ 8e/ 8G/	.	8ccc\ 8ee\	sf
*Xrep	*	*	*	*	*	*	*	*
=25	=25	=25	=25	=25	=25	=25	=25	=25
!	!	!	!	!	!	!	!LO:DY:rj	!
8F\L	(16dd\LL 16b-/	.	8FF/	.	8r	p	4r	.
.	16cc\J 16a/)	.	.	.	.	.	.	.
8c\J 8A\	8a\J 8f'/	.	8r	.	8f/ 8A/	.	.	.
.	(16qqff/LL	.	.	.	.	.	(16qqff/LL	.
.	16qqgg/JJ	.	.	.	.	.	16qqgg/JJ	.
*rep	*	*	*	*	*	*	*	*
8F\L	8aa\L)	.	8F\	.	8r	.	8aa\L)	.
8c\J 8A\	8cc\J 8a\	.	8r	.	8f/ 8A/	.	8cc'\J	.
*Xrep	*	*	*	*	*	*	*	*
!!LO:LB:g=original
=26	=26	=26	=26	=26	=26	=26	=26	=26
8C\L	(16cc\LL 16a/	.	8C/	.	8r	.	4r	.
.	16b-\J 16g/)	.	.	.	.	.	.	.
8c\J 8B-\ 8G\	8g\J 8e'/	.	8r	.	8e/ 8G/	.	.	.
.	16qqee/LL	.	.	.	.	.	16qqee/LL	.
.	16qqff/JJ	.	.	.	.	.	16qqff/JJ	.
*rep	*	*	*	*	*	*	*	*
8C\L	8gg\L	.	8C/	.	8r	.	8gg\L	.
8c\J 8B-\ 8G\	8b-\J 8g\	.	8r	.	8e/ 8G/	.	8b-\J	.
*Xrep	*	*	*	*	*	*	*	*
=27	=27	=27	=27	=27	=27	=27	=27	=27
*^	*	*	*	*	*	*	*	*
8F\L	4rEEyy	16a'\LL	.	8F\	.	8r	.	16a'\LL	.
.	.	16dd'\J	.	.	.	.	.	16dd'\J	.
8c\J 8A\	.	8cc'\J	.	8r	.	8f/ 8A/	.	8cc'\J	.
4BBn/	8BBn\L	16dd'\LL	.	4BBn/	.	8r	.	16dd'\LL	.
.	.	16ee'\J	.	.	.	.	.	16ee'\J	.
.	8A-X\J 8F\ 8D\	8ff'\J	.	.	.	8f/ 8A-X/	.	8ff'\J	.
=28	=28	=28	=28	=28	=28	=28	=28	=28	=28
4C/	8C\L	(16dd\LL	.	8C/	.	8r	.	(16dd\LL	.
.	.	16cc\	.	.	.	.	.	16cc\	.
.	8B-\J 8E\	16aa\	.	8r	.	8e/ 8B-/	.	16aa\	.
.	.	16gg\JJ	.	.	.	.	.	16gg\JJ)	.
4rcyy	8A\ 8F\	8ff\)	.	8F\	.	8f/ 8A/	.	8ff\	.
.	8rF	8r	.	8r	.	8r	.	8r	.
=29:|!|:	=29:|!|:	=29:|!|:	=29:|!|:	=29:|!|:	=29:|!|:	=29:|!|:	=29:|!|:	=29:|!|:	=29:|!|:
*>E	*>E	*>E	*	*>E	*	*>E	*	*>E	*
!	!	!	!LO:DY:rj	!	!	!	!LO:DY:a:rj	!	!
4D/	8D\L	16ff\LL	f	8D\	.	8r	f	2r	.
.	.	16ee\	.	.	.	.	.	.	.
.	8A\J 8F\	16dd\	.	8r	.	8f/ 8A/	.	.	.
.	.	16cc\JJ	.	.	.	.	.	.	.
4D/	8D\L	16b-/LL	.	8D\	.	8r	.	.	.
.	.	16a/	.	.	.	.	.	.	.
.	8B-\J 8G\	16g/	.	8r	.	8g/ 8B-/	.	.	.
.	.	16b-/JJ	.	.	.	.	.	.	.
=30	=30	=30	=30	=30	=30	=30	=30	=30	=30
4D/	8D\L	16a\LL	.	8D\	.	8r	.	4r	.
.	.	16aa\	.	.	.	.	.	.	.
.	8A\J 8F\	16ff\	.	8r	.	8f/ 8A/	.	.	.
.	.	16dd\JJ	.	.	.	.	.	.	.
4C#X/	8C#\L	8ee\L	.	4C#X^/	.	8r	.	8r	.
.	8A\J 8E\	8aa\J	sf	.	.	8a/	.	8aa\	sf
!!LO:PB:g=original
=31	=31	=31	=31	=31	=31	=31	=31	=31	=31
!	!	!	!	!	!	!	!	!	!LO:DY:rj
4Cn/	8Cn\L	16ccc\LL	.	8C/	.	16cc/LL	.	16ccc'\LL	f
.	.	16bb-X\	.	.	.	16b-/	.	16bb-'\	.
.	8B-\J 8E\	16aa\	.	8r	.	16a/	.	16aa'\	.
.	.	16gg\JJ	.	.	.	16g/JJ	.	16gg'\JJ	.
8A\L 8F\ 8D\	4rEEyy	16ff\LL	.	8D/L	.	16f/LL	.	16ff'\LL	.
.	.	16ee\	.	.	.	16e/	.	16ee'\	.
8G\J 8D\ 8BB-\	.	16dd\	.	8BB-/J	.	16d/	.	16dd'\	.
.	.	16gg\JJ	.	.	.	16g/JJ	.	16gg'\JJ	.
=32	=32	=32	=32	=32	=32	=32	=32	=32	=32
4C/	8C\L	16ee'\LL	.	8C/L	.	16e'\LL	.	16ee'\LL	.
.	.	(16ddd\	.	.	.	(16dd\	.	(16ddd\	.
.	8B-\J 8E\	16ccc\)	.	8C/J	.	16cc\)	.	16ccc\)	.
.	.	16ee'\JJ	.	.	.	16b-\JJ 16e\	.	16ee'\JJ	.
4rcyy	8A\ 8F\	8ff\	.	8F\	.	8a/	.	8ff\	.
.	8rA	8a/	.	8r	.	8r	.	8r	.
=33	=33	=33	=33	=33	=33	=33	=33	=33	=33
4D/	8D\L	16ff\LL	.	8D\	.	8r	.	2r	.
.	.	16ee\	.	.	.	.	.	.	.
.	8A\J 8F\	16dd\	.	8r	.	8f/ 8A/	.	.	.
.	.	16cc\JJ	.	.	.	.	.	.	.
4D/	8D\L	16b-/LL	.	8D\	.	8r	.	.	.
.	.	16a/	.	.	.	.	.	.	.
.	8B-\J 8G\	16g/	.	8r	.	8g/ 8B-/	.	.	.
.	.	16b-/JJ	.	.	.	.	.	.	.
=34	=34	=34	=34	=34	=34	=34	=34	=34	=34
4D/	8D\L	16a\LL	.	8D\	.	8r	.	4r	.
.	.	16aa\	.	.	.	.	.	.	.
.	8A\J 8F\	16ff\	.	8r	.	8f/ 8A/	.	.	.
.	.	16dd\JJ	.	.	.	.	.	.	.
4C#X/	8C#\L	8ee\L	.	4C#X^/	.	8r	.	8r	.
.	8A\J 8E\	8aa\J	sf	.	.	8a/	.	8aa\	sf
!!LO:LB:g=original
=35	=35	=35	=35	=35	=35	=35	=35	=35	=35
4Cn/	8Cn\L	16ccc\LL	.	8C/	.	16cc/LL	.	16ccc\LL	.
.	.	16bb-\	.	.	.	16b-/	.	16bb-\	.
.	8B-\J 8E\	16aa\	.	8r	.	16a/	.	16aa\	.
.	.	16gg\JJ	.	.	.	16g/JJ	.	16gg\JJ	.
8A\L 8F\ 8D\	4rEEyy	16ff\LL	.	8D/L	.	16f/LL	.	16ff\LL	.
.	.	16ee\	.	.	.	16e/	.	16ee\	.
8G\J 8D\ 8BB-\	.	16dd\	.	8BB-/J	.	16d/	.	16dd\	.
.	.	16gg\JJ	.	.	.	16g/JJ	.	16gg\JJ	.
=36	=36	=36	=36	=36	=36	=36	=36	=36	=36
4C/	8C\L	16ee\LL|	.	8C/L	.	16e'/LL	.	16ee'\LL	.
.	.	(16ddd\	.	.	.	(16dd/	.	(16ddd\	.
.	8B-\J 8G\	16ccc\)	.	8C/J	.	16cc/)	.	16ccc\)	.
.	.	16ee'\JJ	.	.	.	16b-'/JJ	.	16ee'\JJ	.
4rcyy	8A\ 8F\	8ff\	.	8F\	.	8a/	.	8ff\	.
.	8rA	8r	.	8r	.	8r	.	8r	.
*v	*v	*	*	*	*	*	*	*	*
=37	=37	=37	=37	=37	=37	=37	=37	=37
!	!	!LO:DY:rj	!	!	!	!	!	!
8F\L	16cc\LL 16a'/	p	8FF/	.	8r	p	4r	p
.	16cc\J 16a'/	.	.	.	.	.	.	.
8c\J 8A\	8a\J 8f'/	.	8r	.	8f/ 8A/	.	.	.
.	(16qqff/LL	.	.	.	.	.	(16qqff/LL	.
.	16qqgg/JJ	.	.	.	.	.	16qqgg/JJ	.
*rep	*	*	*	*	*	*	*	*
8F\L	8aa\L)	.	8F\	.	8r	.	8aa\L)	.
8c\J 8A\	8cc\J 8a'\	.	8r	.	8f/ 8A/	.	8cc'\J	.
*Xrep	*	*	*	*	*	*	*	*
=38	=38	=38	=38	=38	=38	=38	=38	=38
8C\L	16b-\LL 16g'/	.	8C/	.	8r	.	4r	.
.	16b-\J 16g'/	.	.	.	.	.	.	.
8c\J 8B-\ 8G\	8g\J 8e'/	.	8r	.	8e/ 8G/	.	.	.
.	(16qqee/LL	.	.	.	.	.	(16qqee/LL	.
.	16qqff/JJ)	.	.	.	.	.	16qqff/JJ)	.
*rep	*	*	*	*	*	*	*	*
8C\L	8gg\L	.	8C/	.	8r	.	8gg\L	.
8c\J 8B-\ 8G\	8b-\J 8g'\	.	8r	.	8e/ 8G/	.	8b-'\J	.
*Xrep	*	*	*	*	*	*	*	*
=39	=39	=39	=39	=39	=39	=39	=39	=39
8F\L	16a'\LL	.	2r	.	2r	.	2r	.
.	16dd'\J	.	.	.	.	.	.	.
8c\J 8A\	[8cc\J	.	.	.	.	.	.	.
*rep	*	*	*	*	*	*	*	*
8F\L	16cc\LL]	.	.	.	.	.	.	.
.	16gg'\J	.	.	.	.	.	.	.
8c\J 8A\	8ff'\J	.	.	.	.	.	.	.
*Xrep	*	*	*	*	*	*	*	*
=40	=40	=40	=40	=40	=40	=40	=40	=40
.	(8qaa/	.	.	.	.	.	.	.
8C\L	16.gg\LL)	.	4r	.	4r	.	4r	.
.	32ff#X\K	.	.	.	.	.	.	.
8c\J 8G\ 8E\	16.gg\	.	.	.	.	.	.	.
.	32aa\JJk	.	.	.	.	.	.	.
8C\L	8gg\L	.	8r	.	8r	.	8r	.
8c\J 8G\ 8E\	8ccc\J 8gg\ 8ee\	sf	8C/ 8CC/	.	8cc/ 8e/ 8G/	.	8ccc\ 8ee\	sf
!!LO:LB:g=original
=41	=41	=41	=41	=41	=41	=41	=41	=41
8F\L	(16dd\LL 16b-/	.	8FF/	.	8r	.	4r	p
.	16cc\J 16a/)	.	.	.	.	.	.	.
8c\J 8A\	8a\J 8f'/	.	8r	.	8f/ 8A/	.	.	.
.	(16qqff/LL	.	.	.	.	.	(16qqff/LL	.
.	16qqgg/JJ	.	.	.	.	.	16qqgg/JJ	.
*rep	*	*	*	*	*	*	*	*
8F\L	8aa\L)	.	8F\	.	8r	.	8aa\L)	.
8c\J 8A\	8cc\J 8a'\	.	8r	.	8f/ 8A/	.	8cc'\J	.
*Xrep	*	*	*	*	*	*	*	*
=42	=42	=42	=42	=42	=42	=42	=42	=42
8C\L	(16cc\LL 16a/	.	8C/	.	8r	.	4r	.
.	16b-\J 16g/)	.	.	.	.	.	.	.
8c\J 8B-\ 8G\	8g\J 8e/	.	8r	.	8e/ 8G/	.	.	.
.	(16qqee/LL	.	.	.	.	.	(16qqee/LL	.
.	16qqff/JJ	.	.	.	.	.	16qqff/JJ	.
*rep	*	*	*	*	*	*	*	*
8C\L	8gg\L)	.	8C/	.	8r	.	8gg\L)	.
8c\J 8B-\ 8G\	8b-\J 8g'\	.	8r	.	8e/ 8G/	.	8b-'\J	.
*Xrep	*	*	*	*	*	*	*	*
=43	=43	=43	=43	=43	=43	=43	=43	=43
*^	*	*	*	*	*	*	*	*
8F\L	4rEEyy	16a'\LL	.	8F\	.	8r	.	16a'\LL	.
.	.	16dd'\J	.	.	.	.	.	16dd'\J	.
8c\J 8A\	.	8cc'\J	.	8r	.	8f/ 8A/	.	8cc'\J	.
4BBn/	8BBn\L	16dd'\LL	.	4BBn/	.	8r	.	16dd'\LL	.
.	.	16ee'\J	.	.	.	.	.	16ee'\J	.
.	8A-X\J 8F\ 8D\	8ff'\J	.	.	.	8f/ 8A-X/	.	8ff'\J	.
=44	=44	=44	=44	=44	=44	=44	=44	=44	=44
4C/	8C\L	(16dd\LL	.	8C/L	.	8r	.	(16dd\LL	.
.	.	16cc\	.	.	.	.	.	16cc\	.
.	8B-X\J 8G\ 8E\	16aa\	.	8C/J	.	8e/ 8B-/	.	16aa\	.
.	.	16gg\JJ	.	.	.	.	.	16gg\JJ	.
4rcyy	8A\ 8F\	8ff\)	.	8F\	.	8f/ 8A/	.	8ff\)	.
!	!	!LO:TX:b:t=Polka dacapo\nal fine	!	!	!	!	!	!	!
!	!	!LO:TX:t=P:problem:fermata na kresce taktowej	!	!	!	!	!	!	!
!	!	!LO:TX:t=P:problem:fermata na kresce taktowej	!	!	!	!	!	!	!
.	8rA	8r;	.	8r	.	8r	.	8r;	.
*v	*v	*	*	*	*	*	*	*	*
=:|!	=:|!	=:|!	=:|!	=:|!	=:|!	=:|!	=:|!	=:|!
*-	*-	*-	*-	*-	*-	*-	*-	*-
!!!system-decoration: {(s1,s2,s3)}({(s4,s5)})
!!!RDF**kern: | = vertical stroke
!!!RDF**kern: > = above
!!!RDF**kern: < = below
!!!EED: Andrzej Borzym
!!!EST: 2021-06-27
!!!ENC: Mateusz Solarz
!!!END: 2021-06-21
